src/ui/components/desktop/laptop.svg

<?xml version="1.0" encoding="UTF-8" standalone="no"?>
<svg width="332px" height="185px" viewBox="0 0 332 185" version="1.1" xmlns="http://www.w3.org/2000/svg" xmlns:xlink="http://www.w3.org/1999/xlink" xmlns:sketch="http://www.bohemiancoding.com/sketch/ns">
    <!-- Generator: Sketch 3.2.1 (9977) - http://www.bohemiancoding.com/sketch -->
    <title>laptop</title>
    <desc>Created with Sketch.</desc>
    <defs>
        <filter x="-50%" y="-50%" width="200%" height="200%" filterUnits="objectBoundingBox" id="filter-1">
            <feOffset dx="0" dy="0" in="SourceAlpha" result="shadowOffsetOuter1"></feOffset>
            <feGaussianBlur stdDeviation="0.5" in="shadowOffsetOuter1" result="shadowBlurOuter1"></feGaussianBlur>
            <feColorMatrix values="0 0 0 0 0   0 0 0 0 0   0 0 0 0 0  0 0 0 0.35 0" in="shadowBlurOuter1" type="matrix" result="shadowMatrixOuter1"></feColorMatrix>
            <feMerge>
                <feMergeNode in="shadowMatrixOuter1"></feMergeNode>
                <feMergeNode in="SourceGraphic"></feMergeNode>
            </feMerge>
        </filter>
    </defs>
    <g id="Page-1" stroke="none" stroke-width="1" fill="none" fill-rule="evenodd" sketch:type="MSPage">
        <g id="laptop" sketch:type="MSLayerGroup" transform="translate(0.000000, 1.000000)">
            <path d="M46.949495,0 C40.4839506,0 34.972583,5.32362175 34.972583,11.917586 L34.972583,168.753018 L296.548341,168.753012 L296.548341,11.917586 C296.548327,5.32314222 291.056916,0 284.571429,0 L46.949495,0 Z M45.5122656,18.7488399 L285.564963,18.7488399 L285.564963,159.129096 L45.5122656,159.129096 L45.5122656,18.7488399 Z" id="bezel" fill="#2B3E50" filter="url(#filter-1)" sketch:type="MSShapeGroup"></path>
            <ellipse id="webcam" stroke="#F5F5F5" stroke-width="2" sketch:type="MSShapeGroup" cx="166.239538" cy="9.13405024" rx="1.91630592" ry="1.92295794"></ellipse>
            <g id="bottom" transform="translate(0.000000, 168.739559)" sketch:type="MSShapeGroup">
                <path d="M306.997957,14.9077315 L24.5708745,14.9077315 C9.88861763,14.9077315 0,9.85227504 0,7.70240803 L0,1.16723547 C0,0.521121601 0.639567099,0 1.43483405,0 L330.133518,0 C330.929743,0 331.570268,0.521121601 331.570268,1.16723547 L331.570268,7.95960365 C331.566915,9.65901773 323.909356,14.9077315 306.997957,14.9077315 L306.997957,14.9077315 L306.997957,14.9077315 Z" id="Shape" fill="#F5F5F5"></path>
                <path d="M0.239538239,6.97072253 L330.679031,6.97072253" id="Line" stroke="#BDBDBD"></path>
            </g>
            <path d="M201.691197,171.981493 L201.691197,173.465536 C201.691197,174.523644 199.615224,174.843197 198.043854,174.843197 L133.573846,174.843197 C131.920553,174.843197 129.829726,174.524124 129.829726,173.465536 L129.829726,171.981493" id="touchpad" fill="#BDBDBD" sketch:type="MSShapeGroup"></path>
        </g>
    </g>
</svg>

<svg width="332" height="185" viewBox="0 0 332 185" xmlns="http://www.w3.org/2000/svg"><title>laptop</title><desc>Created with Sketch.</desc><defs><filter x="-50%" y="-50%" width="200%" height="200%" filterUnits="objectBoundingBox" id="a"><feOffset in="SourceAlpha" result="shadowOffsetOuter1"/><feGaussianBlur stdDeviation=".5" in="shadowOffsetOuter1" result="shadowBlurOuter1"/><feColorMatrix values="0 0 0 0 0 0 0 0 0 0 0 0 0 0 0 0 0 0 0.35 0" in="shadowBlurOuter1" result="shadowMatrixOuter1"/><feMerge><feMergeNode in="shadowMatrixOuter1"/><feMergeNode in="SourceGraphic"/></feMerge></filter></defs><g fill="none" fill-rule="evenodd"><g transform="translate(0 1)"><path d="M46.95 0c-6.466 0-11.977 5.324-11.977 11.918v156.835h261.575V11.918C296.548 5.323 291.058 0 284.57 0H46.95zM45.51 18.75h240.053v140.38H45.512V18.75z" fill="#2B3E50" filter="url(#a)"/><ellipse stroke="#F5F5F5" stroke-width="2" cx="166.24" cy="9.134" rx="1.916" ry="1.923"/><g><path d="M306.998 183.647H24.57c-14.68 0-24.57-5.055-24.57-7.205v-6.535c0-.646.64-1.167 1.435-1.167h328.7c.795 0 1.435.52 1.435 1.167v6.792c-.003 1.7-7.66 6.947-24.572 6.947z" fill="#F5F5F5"/><path d="M.24 175.71h330.44" stroke="#BDBDBD"/></g><path d="M201.69 171.98v1.486c0 1.058-2.075 1.377-3.646 1.377h-64.47c-1.653 0-3.744-.32-3.744-1.377v-1.485" fill="#BDBDBD"/></g></g></svg>
